X: 295
M: 6/4
L: 1/4
K: Dm
d |\
c>BA GAB | F>ED ^C>=B,A, |\
|: f |\
e>dc ABc | c>BA GAB |
agf efg | def c>BA |\

